X:1
T:Title
%%score 1 2 3 4
L:1/8
M:2/2
K:C
V:1 treble nm="Part_1"
V:2 treble nm="Part_2"
V:3 treble-8 nm="Part_3"
V:4 bass nm="Part_4"
V:1
 A8 | G4 A2 c2- | c2 A2 B4 | A4 z2 A2 | G4 A4 | F4 E4 | F4 D4 | z2 C2 D2 F2- | F2 E2 D2 A2- | %9
 A2 G2 F2 D2 | E4 D2 B,2 | A,4 B,2 C2 | A,2 D4 C2 | D8 | z8 | F4 G4 | D4 C4 | F4 G4 | A2 B3 A A2- | %19
 A4 G3 F | A8 | z8 | A8 | F4 A4- | A4 F4 | D4 z4 | F6 G2 | A2 B2 A4 | D4 z4 | F6 G2 | A2 B2 c4 | %31
 A6 G2 | F2 E2 F4 | D4 z4 | A6 G2 | B4 A2 F2- | F2 E2 G4 | F2 D4 G2 | F2 D2 E4 | D4 F4- | %40
 F2 E2 D4 | C8 | z8 | D8 | F6 G2 | A4 B4 | A6 G2 | F4 E4- | E2 D2 D4- | D2 C2 C2 B,2 | %50
[M:4/2] D16 |] %51
V:2
 z8 | z4 A4- | A4 G4 | A2 c4 A2 | B4 A4 | z2 A2 G4 | A4 F4 | E4 F2 D2- | D2 C2 D2 F2- | %9
 F2 E2 D2 A2- | A2 G2 F2 D2 | E3 F G2 (3:2:1A3- | (3:2:2A G2 F2 E4 | D4 z4 | F4 G4 | D4 C4 | %16
 F4 G4 | A4 G2 E2 | C2 D4 C2 | A,2 C2 B,4 | A,8- | A,8 | z8 | A8 | F4 A4- | A4 F4 | D4 z4 | F6 G2 | %28
 A2 B2 A4 | D4 z4 | F6 G2 | A2 B2 c4 | A6 G2 | F2 E2 F4 | D4 z4 | z4 A4- | A2 G2 B4 | A6 B2 | %38
 A2 d4 c2 | d4 A4- | A2 G2 F4 | E4 z4 | D4 F2 G2 | A4 B4 | A6 G2 | F4 E4 | F4 D4 | C8 | z4 D4 | %49
 E4 G4 |[M:4/2] F8 !fermata![FA]8 |] %51
V:3
 z8 | z8 | z8 | z8 | z8 | z8 | z8 | z8 | z8 | z8 | z8 | z8 | z8 | z8 | z8 | z8 | z8 | z8 | z8 | %19
 z8 | z8 | z8 | z8 | z8 | z8 | z8 | z8 | z8 | z8 | z8 | z8 | z8 | z8 | z8 | z8 | z8 | z8 | z8 | %38
 z8 | D8- | D8 | A8 | D8 | F6 G2 | A4 B4 | A4 G4 | F4 G4 | A4 c4 | B4 A4- | A2 G2 G2 F2 | %50
[M:4/2] A16 |] %51
V:4
 z8 | z8 | z8 | z8 | z8 | z8 | z8 | z8 | z8 | z8 | z8 | z8 | z8 | z8 | z8 | z8 | z8 | z8 | z8 | %19
 z8 | z8 | z8 | z8 | z8 | z8 | z8 | z8 | z8 | z8 | z8 | z8 | z8 | z8 | z8 | z8 | z8 | z8 | z8 | %38
 z8 | z8 | z8 | z8 | z8 | z8 | D,8 | F,4 G,4 | A,4 B,4 | A,8 | G,4 F,4 | E,8 |[M:4/2] D,16 |] %51

